X:186
T:Leezie Lindsay
R:song
H:Scottish
Z:id:hn-song-186
M:3/4
L:1/8
Q:1/4=140
K:D
FE | D3 E F2 | A2 F2 ED | E F3- F2- | F4
FE | D3 E F2 | A2 F2 A2 | B6- | B4
cd | D3 E F2 | A2 F2 ED | E F3- F2- | F4
A2 | B2 d2 B2 | A2 F2 E2 | D6- | D4 ||
W:Chorus:
W:Will ye gang tae the heilands Leezie Lindsay,
W:Will ye gang tae the heilands wi' me,
W:Will ye gang tae the heilands Leezie Lindsay,
W:My bride and my darling tae be.
W:
W:Tae gang tae the hielands wi' you, sir,
W:I dinna ken how that maun be,
W:For I ken nae the land that ye live in,
W:Nor ken I the name ye go wi'.
W:
W:Chorus
W:
W:Oh, Leezie, you maun ken little
W:If sae be that ye dinna ken me,
W:For my name is Lord Ronald of MacDonald,
W:A chieftain o' high degree.
W:
W:Chorus
W:
W:She has kilted her gown o' green satin,
W:She has kilted them up tae her knee,
W:And she's gone wi' Lord Ronald MacDonald,
W:His bride and his darling tae be.
W:
W:Chorus

